src/img/icons/stackoverflow.svg

<svg width="21" height="25" viewBox="0 0 21 25" fill="none" xmlns="http://www.w3.org/2000/svg">
    <path d="M16.9413 21.4844V15.625H19.5477V24.0886H0V15.625H2.60636V21.4844H16.9413Z" fill="currentColor" />
    <path d="M14.9867 16.9272L15.508 14.974L5.01739 12.8256L4.56128 14.974L14.9867 16.9272ZM5.99478 9.89589L15.7686 14.4532L16.6809 12.5001L6.907 7.94275L5.99478 9.89589V9.89589ZM8.73146 5.07815L16.9415 11.9792L18.3098 10.3516L10.0346 3.45054L8.6663 5.07815H8.73146ZM14.0093 0L12.25 1.30209L18.7008 9.96099L20.4601 8.6589L14.0093 0ZM4.56128 19.5314H14.9867V17.5782H4.56128V19.5314Z" fill="currentColor" />
</svg>

<svg xmlns="http://www.w3.org/2000/svg" width="21" height="25" fill="none"><path fill="currentColor" d="M16.9413 21.4844V15.625h2.6064v8.4636H0V15.625h2.6064v5.8594h14.3349Z"/><path fill="currentColor" d="m14.9867 16.9272.5213-1.9532-10.4906-2.1484-.4561 2.1484 10.4254 1.9532Zm-8.992-7.0313 9.7739 4.5573.9123-1.9531L6.907 7.9428l-.9122 1.953Zm2.7368-4.8177 8.21 6.901 1.3683-1.6276-8.2752-6.901L8.6663 5.078h.0652ZM14.0093 0 12.25 1.302l6.4508 8.659 1.7593-1.3021L14.0093 0Zm-9.448 19.5314h10.4254v-1.9532H4.5613v1.9532Z"/></svg>
